MonoIcons/scalable/status/microphone-sensitivity-low-symbolic.svg

<?xml version="1.0" encoding="UTF-8"?>
<svg height="16px" viewBox="0 0 16 16" width="16px" xmlns="http://www.w3.org/2000/svg">
    <g fill="#2e3436">
        <path d="m 2 6 v 2.011719 c 0 2.964843 2.164062 5.429687 5 5.90625 v 2.082031 h 2 v -2.082031 c 2.835938 -0.476563 5 -2.941407 5 -5.90625 v -2.011719 h -1.5 v 2.011719 c 0 2.5 -1.992188 4.488281 -4.5 4.488281 s -4.5 -1.988281 -4.5 -4.488281 v -2.011719 z m 3 1 v 1 c 0 1.660156 1.339844 3 3 3 s 3 -1.339844 3 -3 v -1 z m 0 0"/>
        <path d="m 8 0 c -1.660156 0 -3 1.339844 -3 3 v 4 h 2 v -4 c 0 -0.554688 0.445312 -1 1 -1 s 1 0.445312 1 1 v 4 h 2 v -4 c 0 -1.660156 -1.339844 -3 -3 -3 z m 0 0" fill-opacity="0.34902"/>
    </g>
</svg>

<svg width="16" height="16" viewBox="0 0 16 16" fill="none" xmlns="http://www.w3.org/2000/svg">
<path d="M2 6V8.01172C2 10.9766 4.16406 13.4414 7 13.918V16H9V13.918C11.8359 13.4414 14 10.9766 14 8.01172V6H12.5V8.01172C12.5 10.5117 10.5078 12.5 8 12.5C5.49219 12.5 3.5 10.5117 3.5 8.01172V6H2ZM5 7V8C5 9.66016 6.33984 11 8 11C9.66016 11 11 9.66016 11 8V7H5Z" fill="#2E3436"/>
<path d="M8 0C6.33984 0 5 1.33984 5 3V7H7V3C7 2.44531 7.44531 2 8 2C8.55469 2 9 2.44531 9 3V7H11V3C11 1.33984 9.66016 0 8 0Z" fill="#2E3436" fill-opacity="0.5"/>
</svg>
